X:278
T:Hardiman's Fancy
T:Derrane's
T:Joe Derrane's
T:Martin Hardiman's
R:jig
C:Martin Hardiman, Chicago
Z:id:hn-jig-278
M:6/8
K:Bm
~B3 BAF|AFE EFE|DFA def|afe dBA|
~B3 BAF|AFE EFE|DFA def|1 edB B2A:|2 edB Bcd||
|:~e3 edB|AFF dFF|def ~a3|baf ~a3|
baf afa|baf edB|def afe|1 dBA Bcd:|2 dBA B2A||

